Assets/SettingsPanel/Volume.svg

<?xml version="1.0" encoding="UTF-8"?>
<svg xmlns="http://www.w3.org/2000/svg" xmlns:xlink="http://www.w3.org/1999/xlink" width="32px" height="32px" viewBox="0 0 32 32" version="1.1">
<g id="surface1">
<path style=" stroke:none;fill-rule:nonzero;fill:rgb(0%,0%,0%);fill-opacity:1;" d="M 16.902344 3.457031 C 17.15625 3.527344 17.40625 3.59375 17.667969 3.667969 C 18.558594 7.496094 18.824219 11.164062 18.796875 15.089844 C 18.792969 16 18.796875 16.90625 18.804688 17.816406 C 18.808594 21.429688 18.488281 24.808594 17.667969 28.332031 C 16.09375 28.722656 16.09375 28.722656 15.238281 28.222656 C 14.980469 27.996094 14.722656 27.773438 14.457031 27.542969 C 14.171875 27.296875 13.882812 27.050781 13.585938 26.800781 C 13.285156 26.535156 12.980469 26.273438 12.667969 26 C 12.023438 25.46875 11.375 24.941406 10.730469 24.417969 C 10.4375 24.179688 10.148438 23.9375 9.847656 23.691406 C 9.566406 23.464844 9.289062 23.234375 9 23 C 8.746094 22.753906 8.488281 22.507812 8.226562 22.253906 C 7.050781 21.480469 6.007812 21.492188 4.644531 21.5 C 2.234375 21.511719 2.234375 21.511719 1.265625 20.773438 C 0.535156 19.828125 0.496094 19.347656 0.488281 18.167969 C 0.488281 17.816406 0.484375 17.464844 0.484375 17.105469 C 0.488281 16.738281 0.496094 16.375 0.5 16 C 0.496094 15.636719 0.488281 15.269531 0.484375 14.894531 C 0.488281 14.371094 0.488281 14.371094 0.488281 13.832031 C 0.492188 13.511719 0.492188 13.195312 0.496094 12.863281 C 0.71875 11.742188 1.09375 11.347656 2 10.667969 C 2.703125 10.515625 2.703125 10.515625 3.441406 10.535156 C 3.683594 10.539062 3.921875 10.542969 4.171875 10.546875 C 4.472656 10.558594 4.773438 10.570312 5.082031 10.582031 C 6.527344 10.625 6.527344 10.625 8 10.667969 C 8 13.308594 8 15.945312 8 18.667969 C 7.558594 18.667969 7.121094 18.667969 6.667969 18.667969 C 6.667969 16.464844 6.667969 14.265625 6.667969 12 C 6.136719 12.035156 5.609375 12.070312 5.0625 12.105469 C 4.765625 12.125 4.46875 12.144531 4.160156 12.164062 C 3.34375 12.285156 3.34375 12.285156 2.734375 12.679688 C 2.09375 13.722656 2.1875 14.816406 2.207031 16 C 2.203125 16.363281 2.203125 16.363281 2.195312 16.730469 C 2.203125 17.699219 2.230469 18.476562 2.699219 19.332031 C 3.664062 19.839844 4.523438 19.703125 5.605469 19.667969 C 8.628906 19.714844 10.308594 21.21875 12.464844 23.1875 C 13.265625 23.90625 14.113281 24.566406 14.957031 25.230469 C 15.417969 25.597656 15.875 25.964844 16.332031 26.332031 C 16.730469 23.191406 16.71875 20.054688 16.710938 16.894531 C 16.707031 16 16.710938 15.109375 16.710938 14.214844 C 16.714844 11.351562 16.691406 8.515625 16.332031 5.667969 C 15.589844 6.25 14.847656 6.832031 14.105469 7.417969 C 13.792969 7.664062 13.792969 7.664062 13.472656 7.914062 C 13.265625 8.074219 13.0625 8.234375 12.851562 8.402344 C 12.648438 8.558594 12.445312 8.71875 12.238281 8.878906 C 11.734375 9.277344 11.246094 9.699219 10.765625 10.121094 C 10 10.667969 10 10.667969 8.667969 10.667969 C 8.703125 9.785156 8.835938 9.183594 9.425781 8.515625 C 10.007812 7.988281 10.601562 7.492188 11.207031 7 C 11.511719 6.746094 11.511719 6.746094 11.820312 6.488281 C 12.425781 5.980469 13.046875 5.488281 13.667969 5 C 13.871094 4.832031 14.074219 4.664062 14.28125 4.492188 C 15.792969 3.304688 15.792969 3.304688 16.902344 3.457031 Z M 16.902344 3.457031 "/>
<path style=" stroke:none;fill-rule:nonzero;fill:rgb(0%,0%,0%);fill-opacity:1;" d="M 27.332031 5.332031 C 28.109375 5.382812 28.109375 5.382812 29 5.667969 C 29.503906 6.480469 29.503906 6.480469 29.894531 7.519531 C 30.09375 8.027344 30.09375 8.027344 30.296875 8.542969 C 31.125 11.058594 31.464844 13.234375 31.457031 15.875 C 31.457031 16.195312 31.457031 16.519531 31.457031 16.851562 C 31.394531 20.421875 30.675781 23.65625 28.667969 26.667969 C 28.226562 26.667969 27.785156 26.667969 27.332031 26.667969 C 27.488281 24.882812 27.976562 23.449219 28.6875 21.808594 C 30.273438 17.699219 29.679688 12.304688 28 8.332031 C 27.875 8.09375 27.753906 7.855469 27.625 7.609375 C 27.25 6.824219 27.285156 6.191406 27.332031 5.332031 Z M 27.332031 5.332031 "/>
<path style=" stroke:none;fill-rule:nonzero;fill:rgb(0%,0%,0%);fill-opacity:1;" d="M 24.332031 7.667969 C 24.953125 7.734375 24.953125 7.734375 25.667969 8 C 26.078125 8.714844 26.078125 8.714844 26.394531 9.605469 C 26.503906 9.894531 26.613281 10.1875 26.722656 10.484375 C 28.039062 14.511719 27.84375 19.519531 26 23.332031 C 25.78125 23.664062 25.558594 23.992188 25.332031 24.332031 C 24.894531 24.222656 24.453125 24.113281 24 24 C 24.148438 22.828125 24.402344 21.832031 24.855469 20.75 C 26.046875 17.261719 25.671875 13.132812 24.257812 9.792969 C 23.972656 8.917969 24.019531 8.519531 24.332031 7.667969 Z M 24.332031 7.667969 "/>
<path style=" stroke:none;fill-rule:nonzero;fill:rgb(0%,0%,0%);fill-opacity:1;" d="M 21 10.332031 C 21.441406 10.332031 21.878906 10.332031 22.332031 10.332031 C 23.175781 12.296875 23.492188 13.871094 23.457031 16 C 23.460938 16.25 23.464844 16.503906 23.46875 16.761719 C 23.460938 18.601562 23.058594 19.980469 22.332031 21.667969 C 21.894531 21.667969 21.453125 21.667969 21 21.667969 C 21.054688 21.28125 21.109375 20.898438 21.167969 20.5 C 21.332031 18.988281 21.382812 17.480469 21.394531 15.957031 C 21.398438 15.734375 21.40625 15.511719 21.410156 15.285156 C 21.410156 14.136719 21.308594 13.132812 20.976562 12.042969 C 20.667969 11 20.667969 11 21 10.332031 Z M 21 10.332031 "/>
</g>
</svg>

<svg xmlns="http://www.w3.org/2000/svg" width="32" height="32" viewBox="0 0 32 32"><path d="M16.902 3.457c.254.07.504.137.766.211.89 3.828 1.156 7.496 1.129 11.422q-.005 1.363.008 2.726c.004 3.614-.317 6.993-1.137 10.516-1.574.39-1.574.39-2.43-.11a94 94 0 0 0-1.652-1.422c-.3-.265-.606-.527-.918-.8a345 345 0 0 0-1.938-1.582c-.293-.238-.582-.48-.882-.727-.282-.226-.559-.457-.848-.691l-.773-.746c-1.176-.774-2.22-.762-3.582-.754-2.41.012-2.41.012-3.38-.727-.73-.945-.769-1.425-.777-2.605 0-.352-.004-.703-.004-1.063.004-.367.012-.73.016-1.105-.004-.363-.012-.73-.016-1.105.004-.524.004-.524.004-1.063.004-.32.004-.637.008-.969.223-1.12.598-1.515 1.504-2.195.703-.152.703-.152 1.441-.133l.73.012.911.035L8 10.668v8H6.668V12l-1.606.105-.902.06c-.816.12-.816.12-1.426.515-.64 1.043-.546 2.136-.527 3.32-.004.363-.004.363-.012.73.008.97.035 1.747.504 2.602.965.508 1.824.371 2.906.336 3.024.047 4.704 1.55 6.86 3.52.8.718 1.648 1.378 2.492 2.042l1.375 1.102c.398-3.14.387-6.277.379-9.437-.004-.895 0-1.786 0-2.68.004-2.863-.02-5.7-.379-8.547q-1.113.872-2.227 1.75l-.632.496c-.207.16-.41.32-.621.488l-.614.477c-.504.398-.992.82-1.472 1.242-.766.547-.766.547-2.098.547.035-.883.168-1.484.758-2.152A44 44 0 0 1 11.207 7l.613-.512c.606-.508 1.227-1 1.848-1.488l.613-.508c1.512-1.187 1.512-1.187 2.621-1.035m10.43 1.875c.777.05.777.05 1.668.336.504.812.504.812.895 1.852l.402 1.023c.828 2.516 1.168 4.691 1.16 7.332v.977c-.062 3.57-.781 6.804-2.789 9.816h-1.336c.156-1.785.645-3.219 1.355-4.86 1.586-4.109.993-9.503-.687-13.476-.125-.238-.246-.477-.375-.723-.375-.785-.34-1.418-.293-2.277m0 0"/><path d="M24.332 7.668c.621.066.621.066 1.336.332.41.715.41.715.727 1.605q.163.434.328.88c1.316 4.027 1.12 9.035-.723 12.847-.219.332-.441.66-.668 1L24 24c.148-1.172.402-2.168.855-3.25 1.192-3.488.817-7.617-.597-10.957-.285-.875-.238-1.273.074-2.125M21 10.332h1.332c.844 1.965 1.16 3.54 1.125 5.668l.012.762c-.008 1.84-.41 3.218-1.137 4.906H21l.168-1.168c.164-1.512.215-3.02.227-4.543.003-.223.011-.445.015-.672 0-1.148-.101-2.152-.433-3.242C20.668 11 20.668 11 21 10.332m0 0"/></svg>
